Урок1/replace/IMGL0004.xmp
<x:xmpmeta xmlns:x="adobe:ns:meta/" x:xmptk="Adobe XMP Core 5.6-c140 79.160451, 2017/05/06-01:08:21        ">
 <rdf:RDF xmlns:rdf="http://www.w3.org/1999/02/22-rdf-syntax-ns#">
  <rdf:Description rdf:about=""
    xmlns:xmp="http://ns.adobe.com/xap/1.0/"
    xmlns:tiff="http://ns.adobe.com/tiff/1.0/"
    xmlns:exif="http://ns.adobe.com/exif/1.0/"
    xmlns:dc="http://purl.org/dc/elements/1.1/"
    xmlns:aux="http://ns.adobe.com/exif/1.0/aux/"
    xmlns:exifEX="http://cipa.jp/exif/1.0/"
    xmlns:photoshop="http://ns.adobe.com/photoshop/1.0/"
    xmlns:xmpMM="http://ns.adobe.com/xap/1.0/mm/"
    xmlns:stEvt="http://ns.adobe.com/xap/1.0/sType/ResourceEvent#"
    xmlns:crd="http://ns.adobe.com/camera-raw-defaults/1.0/"
    xmlns:crs="http://ns.adobe.com/camera-raw-settings/1.0/"
   xmp:Rating="1"
   xmp:ModifyDate="2021-09-09T12:07:55.73"
   xmp:CreateDate="2021-09-09T12:07:55.73"
   xmp:MetadataDate="2021-10-17T13:37:57+03:00"
   tiff:Make="Canon"
   tiff:Model="Canon EOS 5D Mark III"
   tiff:Orientation="8"
   tiff:ImageWidth="5760"
   tiff:ImageLength="3840"
   exif:ExifVersion="0230"
   exif:ExposureTime="1/2500"
   exif:ShutterSpeedValue="11287712/1000000"
   exif:FNumber="12/10"
   exif:ApertureValue="526069/1000000"
   exif:ExposureProgram="1"
   exif:SensitivityType="2"
   exif:RecommendedExposureIndex="100"
   exif:ExposureBiasValue="0/1"
   exif:MaxApertureValue="625/1000"
   exif:MeteringMode="5"
   exif:FocalLength="50/1"
   exif:CustomRendered="0"
   exif:ExposureMode="1"
   exif:WhiteBalance="1"
   exif:SceneCaptureType="0"
   exif:FocalPlaneXResolution="52428800/32768"
   exif:FocalPlaneYResolution="52428800/32768"
   exif:FocalPlaneResolutionUnit="3"
   exif:DateTimeOriginal="2021-09-09T12:07:55.73"
   exif:PixelXDimension="5760"
   exif:PixelYDimension="3840"
   dc:format="image/x-canon-cr2"
   aux:SerialNumber="293022001104"
   aux:LensInfo="50/1 50/1 0/0 0/0"
   aux:Lens="EF50mm f/1.2L USM"
   aux:LensID="241"
   aux:LensSerialNumber="000041f9e1"
   aux:ImageNumber="0"
   aux:ApproximateFocusDistance="171/100"
   aux:FlashCompensation="0/1"
   aux:OwnerName="vasya4kin"
   aux:Firmware="1.3.6"
   exifEX:LensModel="EF50mm f/1.2L USM"
   photoshop:DateCreated="2021-09-09T12:07:55.73"
   photoshop:SidecarForExtension="CR2"
   photoshop:EmbeddedXMPDigest="AD0ACF660F79AC49FD004B2DD3BC0461"
   xmpMM:DocumentID="F8FAB385007B83EE9E0FC3F9596687B5"
   xmpMM:PreservedFileName="IMGL0004.CR2"
   xmpMM:OriginalDocumentID="F8FAB385007B83EE9E0FC3F9596687B5"
   xmpMM:InstanceID="xmp.iid:02fea10b-05d0-a845-80b3-c61f563c496f"
   crd:CameraProfile="Camera Standard"
   crd:LookName=""
   crs:Version="12.4"
   crs:ProcessVersion="11.0"
   crs:WhiteBalance="Custom"
   crs:Temperature="5122"
   crs:Tint="+1"
   crs:Saturation="+8"
   crs:Sharpness="146"
   crs:LuminanceSmoothing="0"
   crs:ColorNoiseReduction="25"
   crs:VignetteAmount="+49"
   crs:VignetteMidpoint="5"
   crs:ShadowTint="0"
   crs:RedHue="+31"
   crs:RedSaturation="-5"
   crs:GreenHue="+31"
   crs:GreenSaturation="-10"
   crs:BlueHue="-8"
   crs:BlueSaturation="-9"
   crs:Vibrance="-5"
   crs:HueAdjustmentRed="-7"
   crs:HueAdjustmentOrange="-1"
   crs:HueAdjustmentYellow="-22"
   crs:HueAdjustmentGreen="+10"
   crs:HueAdjustmentAqua="+5"
   crs:HueAdjustmentBlue="-10"
   crs:HueAdjustmentPurple="+10"
   crs:HueAdjustmentMagenta="+20"
   crs:SaturationAdjustmentRed="+11"
   crs:SaturationAdjustmentOrange="0"
   crs:SaturationAdjustmentYellow="-31"
   crs:SaturationAdjustmentGreen="-65"
   crs:SaturationAdjustmentAqua="-10"
   crs:SaturationAdjustmentBlue="-31"
   crs:SaturationAdjustmentPurple="-34"
   crs:SaturationAdjustmentMagenta="-25"
   crs:LuminanceAdjustmentRed="-14"
   crs:LuminanceAdjustmentOrange="0"
   crs:LuminanceAdjustmentYellow="-5"
   crs:LuminanceAdjustmentGreen="-21"
   crs:LuminanceAdjustmentAqua="+1"
   crs:LuminanceAdjustmentBlue="-26"
   crs:LuminanceAdjustmentPurple="+1"
   crs:LuminanceAdjustmentMagenta="+1"
   crs:SplitToningShadowHue="0"
   crs:SplitToningShadowSaturation="0"
   crs:SplitToningHighlightHue="0"
   crs:SplitToningHighlightSaturation="0"
   crs:SplitToningBalance="0"
   crs:ParametricShadows="+25"
   crs:ParametricDarks="+7"
   crs:ParametricLights="0"
   crs:ParametricHighlights="+23"
   crs:ParametricShadowSplit="26"
   crs:ParametricMidtoneSplit="54"
   crs:ParametricHighlightSplit="76"
   crs:SharpenRadius="+2.8"
   crs:SharpenDetail="11"
   crs:SharpenEdgeMasking="0"
   crs:PostCropVignetteAmount="0"
   crs:GrainAmount="0"
   crs:ColorNoiseReductionDetail="50"
   crs:ColorNoiseReductionSmoothness="50"
   crs:LensProfileEnable="0"
   crs:LensManualDistortionAmount="0"
   crs:PerspectiveVertical="0"
   crs:PerspectiveHorizontal="0"
   crs:PerspectiveRotate="0.0"
   crs:PerspectiveScale="100"
   crs:PerspectiveAspect="0"
   crs:PerspectiveUpright="0"
   crs:PerspectiveX="0.00"
   crs:PerspectiveY="0.00"
   crs:AutoLateralCA="1"
   crs:Exposure2012="+0.20"
   crs:Contrast2012="-48"
   crs:Highlights2012="-20"
   crs:Shadows2012="0"
   crs:Whites2012="-11"
   crs:Blacks2012="+4"
   crs:Clarity2012="0"
   crs:DefringePurpleAmount="0"
   crs:DefringePurpleHueLo="30"
   crs:DefringePurpleHueHi="70"
   crs:DefringeGreenAmount="0"
   crs:DefringeGreenHueLo="40"
   crs:DefringeGreenHueHi="60"
   crs:Dehaze="0"
   crs:Texture="0"
   crs:ToneMapStrength="0"
   crs:ConvertToGrayscale="False"
   crs:OverrideLookVignette="False"
   crs:ToneCurveName="Medium Contrast"
   crs:ToneCurveName2012="Custom"
   crs:CameraProfile="Adobe Standard"
   crs:CameraProfileDigest="87FB0EDC503E332309FB5DE5C5C65125"
   crs:LensProfileSetup="LensDefaults"
   crs:UprightVersion="151388160"
   crs:UprightCenterMode="0"
   crs:UprightCenterNormX="0.5"
   crs:UprightCenterNormY="0.5"
   crs:UprightFocalMode="0"
   crs:UprightFocalLength35mm="35"
   crs:UprightPreview="False"
   crs:UprightTransformCount="6"
   crs:UprightFourSegmentsCount="0"
   crs:HasSettings="True"
   crs:AlreadyApplied="False"
   crs:RawFileName="IMGL0004.CR2">
   <exif:ISOSpeedRatings>
    <rdf:Seq>
     <rdf:li>100</rdf:li>
    </rdf:Seq>
   </exif:ISOSpeedRatings>
   <exif:Flash
    exif:Fired="False"
    exif:Return="0"
    exif:Mode="2"
    exif:Function="False"
    exif:RedEyeMode="False"/>
   <dc:creator>
    <rdf:Seq>
     <rdf:li>vasya4kin</rdf:li>
    </rdf:Seq>
   </dc:creator>
   <dc:rights>
    <rdf:Alt>
     <rdf:li xml:lang="x-default">vasya4kin</rdf:li>
    </rdf:Alt>
   </dc:rights>
   <xmpMM:History>
    <rdf:Seq>
     <rdf:li
      stEvt:action="saved"
      stEvt:instanceID="xmp.iid:02fea10b-05d0-a845-80b3-c61f563c496f"
      stEvt:when="2021-10-17T13:37:57+03:00"
      stEvt:softwareAgent="Adobe Photoshop Lightroom Classic 9.4 (Windows)"
      stEvt:changed="/metadata"/>
    </rdf:Seq>
   </xmpMM:History>
   <crs:ToneCurve>
    <rdf:Seq>
     <rdf:li>0, 0</rdf:li>
     <rdf:li>32, 22</rdf:li>
     <rdf:li>64, 56</rdf:li>
     <rdf:li>128, 128</rdf:li>
     <rdf:li>192, 196</rdf:li>
     <rdf:li>255, 255</rdf:li>
    </rdf:Seq>
   </crs:ToneCurve>
   <crs:ToneCurveRed>
    <rdf:Seq>
     <rdf:li>0, 0</rdf:li>
     <rdf:li>255, 255</rdf:li>
    </rdf:Seq>
   </crs:ToneCurveRed>
   <crs:ToneCurveGreen>
    <rdf:Seq>
     <rdf:li>0, 0</rdf:li>
     <rdf:li>255, 255</rdf:li>
    </rdf:Seq>
   </crs:ToneCurveGreen>
   <crs:ToneCurveBlue>
    <rdf:Seq>
     <rdf:li>0, 0</rdf:li>
     <rdf:li>255, 255</rdf:li>
    </rdf:Seq>
   </crs:ToneCurveBlue>
   <crs:ToneCurvePV2012>
    <rdf:Seq>
     <rdf:li>0, 0</rdf:li>
     <rdf:li>46, 29</rdf:li>
     <rdf:li>89, 78</rdf:li>
     <rdf:li>131, 144</rdf:li>
     <rdf:li>206, 207</rdf:li>
     <rdf:li>255, 246</rdf:li>
    </rdf:Seq>
   </crs:ToneCurvePV2012>
   <crs:ToneCurvePV2012Red>
    <rdf:Seq>
     <rdf:li>0, 0</rdf:li>
     <rdf:li>255, 255</rdf:li>
    </rdf:Seq>
   </crs:ToneCurvePV2012Red>
   <crs:ToneCurvePV2012Green>
    <rdf:Seq>
     <rdf:li>0, 0</rdf:li>
     <rdf:li>255, 255</rdf:li>
    </rdf:Seq>
   </crs:ToneCurvePV2012Green>
   <crs:ToneCurvePV2012Blue>
    <rdf:Seq>
     <rdf:li>0, 0</rdf:li>
     <rdf:li>255, 255</rdf:li>
    </rdf:Seq>
   </crs:ToneCurvePV2012Blue>
   <crs:Look>
    <rdf:Description
     crs:Name="Adobe Color"
     crs:Amount="1.000000"
     crs:UUID="B952C231111CD8E0ECCF14B86BAA7077"
     crs:SupportsAmount="false"
     crs:SupportsMonochrome="false"
     crs:SupportsOutputReferred="false">
    <crs:Group>
     <rdf:Alt>
      <rdf:li xml:lang="x-default">Profiles</rdf:li>
     </rdf:Alt>
    </crs:Group>
    <crs:Parameters>
     <rdf:Description
      crs:Version="12.4"
      crs:ProcessVersion="11.0"
      crs:ConvertToGrayscale="False"
      crs:CameraProfile="Adobe Standard"
      crs:LookTable="E1095149FDB39D7A057BAB208837E2E1">
     <crs:ToneCurvePV2012>
      <rdf:Seq>
       <rdf:li>0, 0</rdf:li>
       <rdf:li>22, 16</rdf:li>
       <rdf:li>40, 35</rdf:li>
       <rdf:li>127, 127</rdf:li>
       <rdf:li>224, 230</rdf:li>
       <rdf:li>240, 246</rdf:li>
       <rdf:li>255, 255</rdf:li>
      </rdf:Seq>
     </crs:ToneCurvePV2012>
     <crs:ToneCurvePV2012Red>
      <rdf:Seq>
       <rdf:li>0, 0</rdf:li>
       <rdf:li>255, 255</rdf:li>
      </rdf:Seq>
     </crs:ToneCurvePV2012Red>
     <crs:ToneCurvePV2012Green>
      <rdf:Seq>
       <rdf:li>0, 0</rdf:li>
       <rdf:li>255, 255</rdf:li>
      </rdf:Seq>
     </crs:ToneCurvePV2012Green>
     <crs:ToneCurvePV2012Blue>
      <rdf:Seq>
       <rdf:li>0, 0</rdf:li>
       <rdf:li>255, 255</rdf:li>
      </rdf:Seq>
     </crs:ToneCurvePV2012Blue>
     </rdf:Description>
    </crs:Parameters>
    </rdf:Description>
   </crs:Look>
  </rdf:Description>
 </rdf:RDF>
</x:xmpmeta>
